images/buildings/waterfront-right.svg

<?xml version="1.0" standalone="no"?><!DOCTYPE svg PUBLIC "-//W3C//DTD SVG 1.1//EN" "http://www.w3.org/Graphics/SVG/1.1/DTD/svg11.dtd"><svg width="480px" height="240px" version="1.1" xmlns="http://www.w3.org/2000/svg" xmlns:xlink="http://www.w3.org/1999/xlink" xml:space="preserve" style="fill-rule:evenodd;clip-rule:evenodd;stroke-linejoin:round;stroke-miterlimit:1.41421;"><g><g id="waterfront-right-repeat" transform="matrix(0.5,0,0,0.5,0,0)"><g id="water-repeat"><path d="M918.269,291l-118.906,-10.372l-5.677,9.372l-121.354,-13.049l-9.291,14.189l-98.985,-11.016l-4.381,7.394l-80.675,-11.297l0,203.779l482,0l0,-203.475l-35.054,-4.897l-7.677,19.372Z" style="fill:#366387;fill-rule:nonzero;"/><path d="M894.48,361.832l49.082,-7.361l17.438,1.538l0,-5.797l-21.119,-3.718l-45.401,15.338Z" style="fill:#4f83a3;fill-rule:nonzero;"/><path d="M932.703,422.778l-64.264,-15.338l-33.49,15.338l36.205,-7.362l61.549,7.362Z" style="fill:#4f83a3;fill-rule:nonzero;"/><path d="M888.622,334.838l-87.118,-15.338l-45.401,15.338l49.081,-7.362l83.438,7.362Z" style="fill:#4f83a3;fill-rule:nonzero;"/><path d="M781.324,406.784l-64.264,-15.338l-33.489,15.338l36.205,-7.362l61.548,7.362Z" style="fill:#4f83a3;fill-rule:nonzero;"/><path d="M714.385,349.562l-87.119,-15.338l-45.401,15.338l49.082,-7.362l83.438,7.362Z" style="fill:#4f83a3;fill-rule:nonzero;"/><path d="M607.087,416.508l-64.264,-15.338l-33.489,15.338l36.205,-7.362l61.548,7.362Z" style="fill:#4f83a3;fill-rule:nonzero;"/><path d="M479,355.833l68,5.999l-68,-11.972l0,5.973Z" style="fill:#4f83a3;fill-rule:nonzero;"/></g></g><g id="waterfront-right" transform="matrix(0.5,0,0,0.5,0,0)"><g id="water"><path d="M440.269,291l-118.906,-10.372l-5.676,9.372l-121.355,-13.049l-9.291,14.189l-98.986,-11.016l-4.38,7.394l-81.675,-11.437l0,203.919l482,0l0,-203.614l-34.054,-4.758l-7.677,19.372Z" style="fill:#366387;fill-rule:nonzero;"/><path d="M413,361.832l69,-6.087l0,-6.061l-69,12.148Z" style="fill:#4f83a3;fill-rule:nonzero;"/></g><g id="rocks"><path d="M47.9997,288.952l19.897,191.048l391.217,0l-39.113,-69l-39.001,-15.935l-39.599,-35.75l-33.305,-40.565l-49.096,-30.749l-33.873,0l-72.642,-0.373l-104.485,1.324Z" style="fill:#645849;fill-rule:nonzero;"/><path d="M48.3768,281.918l-0.377,2.137l0,37.903l46.75,20.941l53.962,-6.007l27.824,-25.295l-17.706,-29.679l-59.02,-26.918l-51.433,26.918Z" style="fill:#645849;fill-rule:nonzero;"/><path d="M135.535,288.282l41.619,-21.781l47.76,21.781l14.328,24.017l-22.516,20.468l-43.666,4.861l-42.845,-19.192l5.32,-30.154Z" style="fill:#7c705a;fill-rule:nonzero;"/><path d="M173.59,295.695l60.568,-25.636l69.502,25.636l20.851,28.267l-32.766,24.091l-63.545,5.722l-62.352,-22.589l7.742,-35.491Z" style="fill:#645849;fill-rule:nonzero;"/><path d="M68.6123,329.839l51.433,-26.918l59.021,26.918l17.705,29.679l-27.824,25.295l-53.961,6.006l-52.949,-23.716l6.575,-37.264Z" style="fill:#645849;fill-rule:nonzero;"/><path d="M120.467,366.537l51.433,-26.917l59.02,26.917l17.707,29.68l-27.824,25.295l-53.963,6.007l-52.948,-23.717l6.575,-37.265Z" style="fill:#645849;fill-rule:nonzero;"/><path d="M206.279,332.23l39.836,-20.849l45.711,20.849l13.713,22.986l-21.549,19.591l-41.795,4.653l-41.008,-18.37l5.092,-28.86Z" style="fill:#7c705a;fill-rule:nonzero;"/><path d="M288.222,322.505l57.573,-7.436l46.043,33.046l6.33,33.976l-34.863,14.091l-52.703,-13.055l-41.455,-27.942l19.075,-32.68Z" style="fill:#988a74;fill-rule:nonzero;"/><path d="M122.996,365.272l51.433,-26.918l59.02,26.918l17.707,29.68l-27.824,25.295l-53.963,6.006l-52.947,-23.717l6.574,-37.264Z" style="fill:#988a74;fill-rule:nonzero;"/><path d="M74.5039,322.173l23.777,-12.444l27.286,12.444l8.185,13.722l-12.863,11.694l-24.946,2.776l-24.478,-10.963l3.039,-17.229Z" style="fill:#988a74;fill-rule:nonzero;"/><path d="M90.252,417.415l-8.189,46.417l36.096,16.168l103.555,0l28.176,-25.616l-22.054,-36.969l-73.518,-33.53l-64.066,33.53Z" style="fill:#7c705a;fill-rule:nonzero;"/><path d="M48.654,363.769l-0.654,3.709l0,28.535l38.179,17.102l43.667,-4.861l22.515,-20.469l-14.329,-24.016l-47.758,-21.781l-41.62,21.781Z" style="fill:#7c705a;fill-rule:nonzero;"/><path d="M360.707,411.585l31.178,-16.316l35.778,16.316l10.733,17.993l-16.867,15.333l-32.711,3.641l-32.096,-14.377l3.985,-22.59Z" style="fill:#988a74;fill-rule:nonzero;"/><path d="M256.78,426.802l-7.561,42.863l23.074,10.335l110.928,0l20.968,-19.061l-20.365,-34.137l-67.885,-25.9l-59.159,25.9Z" style="fill:#7c705a;fill-rule:nonzero;"/><path d="M161.761,442.887l-5.727,29.306l16.607,7.807l76.297,0l13.518,-11.843l-13.543,-23.674l-46.181,-22.093l-40.971,20.497Z" style="fill:#645849;fill-rule:nonzero;"/><path d="M52.2342,407.816l-4.235,29.627l0,0.628l29.871,19.766l30.978,-4.314l16.302,-20.255l-9.693,-24.294l-33.383,-22.484l-29.84,21.326Z" style="fill:#645849;fill-rule:nonzero;"/><path d="M107.366,398.182l22.989,-4.482l19.72,17.209l3.427,13.517l-13.674,6.575l-21.557,-3.897l-17.742,-15.271l6.837,-13.651Z" style="fill:#988a74;fill-rule:nonzero;"/></g><g id="fish"><path d="M461.861,189.804l-5.742,11.71l-13.436,3.505l11.168,3.906l-1.199,10.418l6.825,-13.453l15.607,-3.877l0.46,-14.154l-13.683,1.945Z" style="fill:#ef9c74;fill-rule:nonzero;"/><path d="M427.914,289l12.092,-20.861l-12.006,10.461l0,-13.698l-5.116,12.07l-8.9,-4.48l3.783,16.508l10.147,0Z" style="fill:#4f83a3;fill-rule:nonzero;"/></g><g id="wall"><path d="M18,113l-2.333,19l53.333,0l-2,-19l-49,0Z" style="fill:#ecdbb1;fill-rule:nonzero;"/><path d="M9.1656,125l-9.166,150.999l0,204.001l96.207,0l-20.04,-355l-67.001,0Z" style="fill:#cead80;fill-rule:nonzero;"/><path d="M10,115l65,0l-0.666,-8l-63.334,0l-1,8Z" style="fill:#cead80;fill-rule:nonzero;"/></g></g></g></svg>

<?xml version="1.0" encoding="UTF-8" standalone="no"?>
<!DOCTYPE svg PUBLIC "-//W3C//DTD SVG 1.1//EN" "http://www.w3.org/Graphics/SVG/1.1/DTD/svg11.dtd">
<svg width="100%" height="100%" viewBox="0 0 610 300" version="1.1" xmlns="http://www.w3.org/2000/svg" xmlns:xlink="http://www.w3.org/1999/xlink" xml:space="preserve" xmlns:serif="http://www.serif.com/" style="fill-rule:evenodd;clip-rule:evenodd;stroke-linejoin:round;stroke-miterlimit:2;">
    <g id="waterfront-right" transform="matrix(0.635,0,0,0.635,0.4,-4.8)">
        <g id="water-repeat">
            <path d="M918.269,291L799.363,280.628L793.686,290L672.332,276.951L663.041,291.14L564.056,280.124L559.675,287.518L479,276.221L479,480L961,480L961,276.525L925.946,271.628L918.269,291Z" style="fill:rgb(54,99,135);fill-rule:nonzero;"/>
            <path d="M894.48,361.832L943.562,354.471L961,356.009L961,350.212L939.881,346.494L894.48,361.832Z" style="fill:rgb(79,131,163);fill-rule:nonzero;"/>
            <path d="M932.703,422.778L868.439,407.44L834.949,422.778L871.154,415.416L932.703,422.778Z" style="fill:rgb(79,131,163);fill-rule:nonzero;"/>
            <path d="M888.622,334.838L801.504,319.5L756.103,334.838L805.184,327.476L888.622,334.838Z" style="fill:rgb(79,131,163);fill-rule:nonzero;"/>
            <path d="M781.324,406.784L717.06,391.446L683.571,406.784L719.776,399.422L781.324,406.784Z" style="fill:rgb(79,131,163);fill-rule:nonzero;"/>
            <path d="M714.385,349.563L627.266,334.224L581.865,349.563L630.947,342.2L714.385,349.563Z" style="fill:rgb(79,131,163);fill-rule:nonzero;"/>
            <path d="M607.087,416.508L542.823,401.17L509.334,416.508L545.539,409.146L607.087,416.508Z" style="fill:rgb(79,131,163);fill-rule:nonzero;"/>
            <path d="M479,355.833L547,361.832L479,349.86L479,355.833Z" style="fill:rgb(79,131,163);fill-rule:nonzero;"/>
        </g>
        <g id="water">
            <path d="M440.269,291L321.363,280.628L315.687,290L194.332,276.951L185.041,291.14L86.055,280.124L81.675,287.518L0,276.081L0,480L482,480L482,276.386L447.946,271.628L440.269,291Z" style="fill:rgb(54,99,135);fill-rule:nonzero;"/>
            <path d="M413,361.832L482,355.745L482,349.684L413,361.832Z" style="fill:rgb(79,131,163);fill-rule:nonzero;"/>
        </g>
        <g id="rocks">
            <path d="M48,288.952L67.897,480L459.114,480L420.001,411L381,395.065L341.401,359.315L308.096,318.75L259,288.001L225.127,288.001L152.485,287.628L48,288.952Z" style="fill:rgb(100,88,73);fill-rule:nonzero;"/>
            <path d="M48.377,281.918L48,284.055L48,321.958L94.75,342.899L148.712,336.892L176.536,311.597L158.83,281.918L99.81,255L48.377,281.918Z" style="fill:rgb(100,88,73);fill-rule:nonzero;"/>
            <path d="M135.535,288.282L177.154,266.501L224.914,288.282L239.242,312.299L216.726,332.767L173.06,337.628L130.215,318.436L135.535,288.282Z" style="fill:rgb(124,112,90);fill-rule:nonzero;"/>
            <path d="M173.59,295.695L234.158,270.059L303.66,295.695L324.511,323.962L291.745,348.053L228.2,353.775L165.848,331.186L173.59,295.695Z" style="fill:rgb(100,88,73);fill-rule:nonzero;"/>
            <path d="M68.612,329.839L120.045,302.921L179.066,329.839L196.771,359.518L168.947,384.813L114.986,390.819L62.037,367.103L68.612,329.839Z" style="fill:rgb(100,88,73);fill-rule:nonzero;"/>
            <path d="M120.467,366.537L171.9,339.62L230.92,366.537L248.627,396.217L220.803,421.512L166.84,427.519L113.892,403.802L120.467,366.537Z" style="fill:rgb(100,88,73);fill-rule:nonzero;"/>
            <path d="M206.279,332.23L246.115,311.381L291.826,332.23L305.539,355.216L283.99,374.807L242.195,379.46L201.187,361.09L206.279,332.23Z" style="fill:rgb(124,112,90);fill-rule:nonzero;"/>
            <path d="M288.222,322.505L345.795,315.069L391.838,348.115L398.168,382.091L363.305,396.182L310.602,383.127L269.147,355.185L288.222,322.505Z" style="fill:rgb(152,138,116);fill-rule:nonzero;"/>
            <path d="M122.996,365.273L174.429,338.354L233.449,365.273L251.156,394.953L223.332,420.248L169.369,426.253L116.422,402.537L122.996,365.273Z" style="fill:rgb(152,138,116);fill-rule:nonzero;"/>
            <path d="M74.504,322.173L98.281,309.729L125.567,322.173L133.752,335.895L120.889,347.589L95.943,350.365L71.465,339.402L74.504,322.173Z" style="fill:rgb(152,138,116);fill-rule:nonzero;"/>
            <path d="M90.252,417.415L82.063,463.832L118.159,480L221.714,480L249.89,454.384L227.836,417.415L154.318,383.885L90.252,417.415Z" style="fill:rgb(124,112,90);fill-rule:nonzero;"/>
            <path d="M48.654,363.77L48,367.479L48,396.014L86.179,413.116L129.846,408.255L152.361,387.786L138.032,363.77L90.274,341.989L48.654,363.77Z" style="fill:rgb(124,112,90);fill-rule:nonzero;"/>
            <path d="M360.707,411.585L391.885,395.269L427.663,411.585L438.396,429.578L421.529,444.911L388.818,448.552L356.722,434.175L360.707,411.585Z" style="fill:rgb(152,138,116);fill-rule:nonzero;"/>
            <path d="M256.78,426.802L249.219,469.665L272.293,480L383.221,480L404.189,460.939L383.824,426.802L315.939,400.902L256.78,426.802Z" style="fill:rgb(124,112,90);fill-rule:nonzero;"/>
            <path d="M161.761,442.887L156.034,472.193L172.641,480L248.938,480L262.457,468.157L248.913,444.483L202.732,422.39L161.761,442.887Z" style="fill:rgb(100,88,73);fill-rule:nonzero;"/>
            <path d="M52.234,407.816L47.999,437.443L47.999,438.071L77.87,457.837L108.848,453.523L125.15,433.268L115.457,408.974L82.074,386.49L52.234,407.816Z" style="fill:rgb(100,88,73);fill-rule:nonzero;"/>
            <path d="M107.366,398.182L130.355,393.7L150.075,410.909L153.502,424.426L139.828,431.001L118.271,427.104L100.529,411.833L107.366,398.182Z" style="fill:rgb(152,138,116);fill-rule:nonzero;"/>
        </g>
        <g id="fish">
            <path d="M461.861,189.804L456.119,201.514L442.683,205.019L453.851,208.925L452.652,219.343L459.477,205.89L475.084,202.013L475.544,187.859L461.861,189.804Z" style="fill:rgb(239,156,116);fill-rule:nonzero;"/>
            <path d="M427.914,289L440.006,268.139L428,278.6L428,264.902L422.884,276.972L413.984,272.492L417.767,289L427.914,289Z" style="fill:rgb(79,131,163);fill-rule:nonzero;"/>
        </g>
        <g id="wall" transform="matrix(1,0,0,1,-0.629521,0)">
            <path d="M18,113L15.667,132L69,132L67,113L18,113Z" style="fill:rgb(236,219,177);fill-rule:nonzero;"/>
            <path d="M9.166,125L-0,275.999L-0,480L96.207,480L76.167,125L9.166,125Z" style="fill:rgb(206,173,128);fill-rule:nonzero;"/>
            <path d="M10,115L75,115L74.334,107L11,107L10,115Z" style="fill:rgb(206,173,128);fill-rule:nonzero;"/>
        </g>
    </g>
</svg>
